svgs/light/file-invoice-dollar.svg

<svg xmlns="http://www.w3.org/2000/svg" viewBox="0 0 384 512"><!--! Font Awesome Pro 6.3.0 by @fontawesome - https://fontawesome.com License - https://fontawesome.com/license (Commercial License) Copyright 2023 Fonticons, Inc. --><path d="M365.3 125.3l-106.5-106.5C246.7 6.742 230.5 0 213.5 0H64C28.65 0 0 28.65 0 64l.0065 384c0 35.35 28.65 64 64 64H320c35.35 0 64-28.65 64-64V170.5C384 153.5 377.3 137.3 365.3 125.3zM224 34.08c4.477 1.566 8.666 3.846 12.12 7.299l106.5 106.5C346.1 151.3 348.4 155.5 349.9 160H240C231.2 160 224 152.8 224 144V34.08zM352 448c0 17.64-14.36 32-32 32H64c-17.64 0-32-14.36-32-32V64c0-17.64 14.36-32 32-32h128v112C192 170.5 213.5 192 240 192H352V448zM80 96h64C152.8 96 160 88.84 160 80S152.8 64 144 64h-64C71.16 64 64 71.16 64 80S71.16 96 80 96zM160 144C160 135.2 152.8 128 144 128h-64C71.16 128 64 135.2 64 144S71.16 160 80 160h64C152.8 160 160 152.8 160 144zM202 288.9c6.766 .9375 14.2 2.984 21.28 5.156c8.5 2.641 17.41-2.156 19.98-10.61c2.594-8.438-2.156-17.39-10.61-19.98c-10.03-3.078-17.96-4.947-24.99-6.008C207.8 256.1 208 256.5 208 256V240c0-8.844-7.133-16-15.98-16S176 231.2 176 240V256c0 .3008 .1543 .5488 .1699 .8457C150.6 260.1 132.9 273.3 128.9 294.1c-7.766 39.97 33.06 50.64 52.67 55.77l6.5 1.656c32.25 8.219 37.17 12.28 35.61 20.34c-1.844 9.453-19.78 14.34-41.81 11.22c-8.578-1.141-18.95-4.469-28.09-7.391l-4.969-1.594c-8.422-2.578-17.41 2.016-20.08 10.45c-2.656 8.438 2.031 17.42 10.45 20.08L144 406.1c10.05 3.221 21.38 6.756 32.3 8.359C176.3 415 176 415.5 176 416v16c0 8.844 7.18 16 16.02 16S208 440.8 208 432V416c0-.5078-.2422-.9375-.2891-1.434c25.42-3.33 43.36-15.98 47.38-36.63c7.859-40.41-32.45-50.67-59.13-57.45L189.7 318.9c-31.39-8.203-30.41-13.3-29.36-18.7C162.1 290.7 180.1 285.9 202 288.9z"/></svg>

<svg xmlns="http://www.w3.org/2000/svg" viewBox="0 0 384 512"><!-- Font Awesome Pro 6.0.0-alpha2 by @fontawesome - https://fontawesome.com License - https://fontawesome.com/license (Commercial License) --><path d="M365.256 125.254L258.746 18.746C246.744 6.742 230.465 0 213.49 0H64C28.654 0 0 28.654 0 64V448C0 483.346 28.654 512 64 512H320C355.348 512 384 483.346 384 448V170.51C384 153.535 377.258 137.258 365.256 125.254ZM224 34.076C228.477 35.643 232.666 37.922 236.119 41.375L342.627 147.879C346.08 151.332 348.357 155.523 349.924 160H240C231.188 160 224 152.828 224 144V34.076ZM352 448C352 465.645 337.645 480 320 480H64C46.355 480 32 465.645 32 448V64C32 46.355 46.355 32 64 32H192V144C192 170.469 213.531 192 240 192H352V448ZM80 96H144C152.844 96 160 88.844 160 80S152.844 64 144 64H80C71.156 64 64 71.156 64 80S71.156 96 80 96ZM160 144C160 135.156 152.844 128 144 128H80C71.156 128 64 135.156 64 144S71.156 160 80 160H144C152.844 160 160 152.844 160 144ZM202.031 288.938C208.797 289.875 216.234 291.922 223.313 294.094C231.813 296.734 240.719 291.938 243.297 283.484C245.891 275.047 241.141 266.094 232.688 263.5C222.656 260.422 214.73 258.553 207.699 257.492C207.75 256.977 208 256.529 208 256V240C208 231.156 200.844 224 192 224S176 231.156 176 240V256C176 256.301 176.154 256.549 176.17 256.846C150.596 260.111 132.932 273.35 128.906 294.062C121.141 334.031 161.969 344.703 181.578 349.828L188.078 351.484C220.328 359.703 225.25 363.766 223.688 371.828C221.844 381.281 203.906 386.172 181.875 383.047C173.297 381.906 162.922 378.578 153.781 375.656L148.813 374.062C140.391 371.484 131.406 376.078 128.734 384.516C126.078 392.953 130.766 401.938 139.188 404.594L144 406.125C154.055 409.346 165.375 412.881 176.305 414.484C176.254 415.008 176 415.463 176 416V432C176 440.844 183.156 448 192 448S208 440.844 208 432V416C208 415.492 207.758 415.062 207.711 414.566C233.131 411.236 251.066 398.582 255.094 377.938C262.953 337.531 222.641 327.266 195.969 320.484L189.672 318.859C158.281 310.656 159.266 305.563 160.312 300.156C162.141 290.703 180.062 285.891 202.031 288.938Z"/></svg>
